images/clients-icons/Client 2.svg

<svg width="178" height="100" viewBox="0 0 178 100" fill="none" xmlns="http://www.w3.org/2000/svg">
<g filter="url(#filter0_d_1_763)">
<rect x="4.5" y="0.5" width="169" height="91" rx="3.5" stroke="#AFB1B8" shape-rendering="crispEdges"/>
</g>
<path fill-rule="evenodd" clip-rule="evenodd" d="M86.1136 21.9345H85.977C85.7671 21.9218 85.5571 21.9167 85.3471 21.9116H85.3471H85.3269H84.8918C84.4946 21.9116 84.0898 21.9218 83.6876 21.9421C83.6573 21.9399 83.6269 21.9399 83.5966 21.9421C79.9522 22.1486 76.3817 23.0595 73.0805 24.6249L72.6479 24.8334V46.9746L73.6598 46.6313C74.5477 46.3261 75.4938 46.0515 76.4728 45.7972C79.1193 45.1178 81.8367 44.7567 84.568 44.7216V47.6306C84.2062 47.6332 83.8546 47.6434 83.503 47.6612H83.4195C81.3175 47.7765 79.2317 48.0967 77.1913 48.6173C74.6072 49.2643 72.1143 50.2357 69.7716 51.5086V23.1119C72.2047 21.6928 74.8253 20.6269 77.5556 19.946C79.9527 19.3271 82.4169 19.0093 84.8918 19H85.3193C85.8303 19.0127 86.3287 19.0356 86.7967 19.0712C88.0297 19.1578 89.2528 19.3526 90.4521 19.6535V22.5168C89.2874 22.2455 88.1032 22.067 86.9105 21.9828C86.8863 21.9808 86.8621 21.9787 86.8379 21.9767C86.5911 21.9556 86.344 21.9345 86.1136 21.9345ZM91.1528 24.8614C91.7877 24.9097 92.4455 24.9326 93.1108 24.9326C95.7125 24.9231 98.3031 24.5908 100.824 23.9434C103.407 23.294 105.899 22.3218 108.241 21.0496V48.9402C105.807 50.3585 103.185 51.4243 100.455 52.1061C98.0571 52.7227 95.5931 53.0395 93.1184 53.0496C91.2433 53.0647 89.3737 52.8443 87.553 52.3935V24.3223C87.983 24.4215 88.4257 24.513 88.876 24.5893C89.6147 24.7139 90.3939 24.8054 91.1528 24.8614ZM105.347 25.0775L104.335 25.4183C103.404 25.7311 102.466 26.0108 101.522 26.26C98.7749 26.966 95.9514 27.3281 93.1158 27.3382C92.4556 27.3382 91.8485 27.3204 91.2616 27.2822L90.4546 27.2288V47.3178V50.0057L91.1477 50.0667C91.7903 50.1227 92.4531 50.1506 93.1209 50.1506C95.3544 50.1412 97.5781 49.8533 99.7412 49.2937C101.522 48.8469 103.255 48.2243 104.914 47.4348L105.347 47.2263V25.0775Z" fill="#AFB1B8"/>
<path d="M71.7371 61.2124C71.5917 61.0615 71.4163 60.943 71.2224 60.8646C71.0284 60.7862 70.8203 60.7496 70.6114 60.7572C70.3888 60.7542 70.1678 60.7957 69.9613 60.8793C69.7719 60.9547 69.5998 61.068 69.4553 61.2124C69.3125 61.3572 69.2013 61.5304 69.129 61.721C69.0497 61.9207 69.0101 62.1341 69.0126 62.3491V66.1431C69.0036 66.4104 69.0546 66.6764 69.1619 66.9212C69.2514 67.1156 69.3807 67.2889 69.5413 67.4298C69.693 67.5575 69.871 67.6495 70.0625 67.6994C70.2469 67.7512 70.4376 67.7777 70.6291 67.7782C70.8404 67.7803 71.0495 67.7351 71.2413 67.646C71.4309 67.563 71.6028 67.4438 71.7473 67.295C71.8881 67.1476 72.0005 66.9752 72.0786 66.7864C72.1597 66.5951 72.201 66.3892 72.2001 66.1812V65.7566H71.2084V66.0948C71.2114 66.2103 71.1916 66.3252 71.1502 66.433C71.1179 66.5137 71.0688 66.5866 71.006 66.6466C70.9446 66.6962 70.8742 66.7334 70.7986 66.7559C70.7316 66.7782 70.6617 66.7902 70.5912 66.7915C70.5026 66.8018 70.413 66.7885 70.3312 66.7527C70.2495 66.717 70.1786 66.6602 70.1257 66.5881C70.0322 66.4356 69.9864 66.2585 69.9942 66.0795V62.5423C69.988 62.3462 70.0297 62.1515 70.1156 61.9753C70.1671 61.8952 70.2399 61.8313 70.3258 61.7908C70.4117 61.7503 70.5071 61.7349 70.6013 61.7464C70.6868 61.7434 70.7717 61.7612 70.8488 61.7984C70.9259 61.8356 70.9929 61.8911 71.044 61.96C71.155 62.1057 71.213 62.2852 71.2084 62.4686V62.7966H72.19V62.4101C72.1919 62.1831 72.1507 61.9578 72.0685 61.7464C71.9953 61.5476 71.8825 61.3659 71.7371 61.2124Z" fill="#AFB1B8"/>
<path d="M77.6289 61.1691C77.3127 60.9021 76.9136 60.7546 76.5007 60.7521C76.2987 60.7529 76.0984 60.7891 75.9087 60.8589C75.7161 60.9279 75.5384 61.0332 75.3851 61.1691C75.2208 61.3168 75.0897 61.498 75.0005 61.7006C74.9006 61.9323 74.8515 62.183 74.8563 62.4355V66.0744C74.8495 66.3304 74.8987 66.5847 75.0005 66.8195C75.0903 67.0151 75.2215 67.1887 75.3851 67.328C75.5367 67.4688 75.7147 67.5777 75.9087 67.6485C76.0984 67.7183 76.2987 67.7544 76.5007 67.7553C76.7027 67.7549 76.9031 67.7187 77.0926 67.6485C77.29 67.5767 77.4719 67.468 77.6289 67.328C77.7871 67.1861 77.9145 67.013 78.0033 66.8195C78.1051 66.5847 78.1544 66.3304 78.1475 66.0744V62.4355C78.1524 62.183 78.1032 61.9323 78.0033 61.7006C77.9151 61.5001 77.7878 61.3194 77.6289 61.1691ZM77.166 66.0744C77.1743 66.1714 77.1609 66.269 77.1268 66.3601C77.0926 66.4512 77.0386 66.5334 76.9687 66.6008C76.8377 66.7106 76.6725 66.7708 76.5019 66.7708C76.3313 66.7708 76.1662 66.7106 76.0352 66.6008C75.9652 66.5334 75.9112 66.4512 75.8771 66.3601C75.8429 66.269 75.8295 66.1714 75.8379 66.0744V62.4355C75.8295 62.3385 75.8429 62.2409 75.8771 62.1498C75.9112 62.0587 75.9652 61.9764 76.0352 61.9091C76.1662 61.7993 76.3313 61.7391 76.5019 61.7391C76.6725 61.7391 76.8377 61.7993 76.9687 61.9091C77.0386 61.9764 77.0926 62.0587 77.1268 62.1498C77.1609 62.2409 77.1743 62.3385 77.166 62.4355V66.0744Z" fill="#AFB1B8"/>
<path d="M85.3673 67.6994V60.8107H84.4136L83.1614 64.4572H83.1437L81.8813 60.8107H80.9377V67.6994H81.9218V63.5087H81.9395L82.9033 66.4712H83.3941L84.3655 63.5087H84.3832V67.6994H85.3673Z" fill="#AFB1B8"/>
<path d="M90.9581 61.2937C90.8065 61.1237 90.6153 60.9943 90.4015 60.9173C90.1712 60.8424 89.9302 60.8063 89.6881 60.8105H88.226V67.6993H89.2075V65.0089H89.7134C90.0197 65.0228 90.3244 64.958 90.5988 64.8207C90.822 64.6968 91.0081 64.515 91.1377 64.2943C91.2512 64.1111 91.3277 63.9071 91.3628 63.6942C91.4014 63.435 91.4192 63.173 91.4159 62.911C91.4255 62.5802 91.3932 62.2495 91.3198 61.9269C91.2543 61.6885 91.1299 61.4706 90.9581 61.2937ZM90.4521 63.3941C90.4479 63.5188 90.4168 63.6412 90.361 63.7527C90.3049 63.8586 90.2162 63.9434 90.1081 63.9942C89.9627 64.0593 89.8041 64.0889 89.6451 64.0807H89.1974V61.7387H89.7033C89.8557 61.7312 90.0075 61.7609 90.146 61.8251C90.2475 61.8834 90.3281 61.9724 90.3762 62.0794C90.4299 62.2004 90.4591 62.331 90.4622 62.4634C90.4622 62.6084 90.4622 62.7609 90.4622 62.9211C90.4622 63.0813 90.4723 63.2466 90.4622 63.3941H90.4521Z" fill="#AFB1B8"/>
<path d="M95.6077 60.8107H94.8032L93.2854 67.6994H94.2669L94.5553 66.2194H95.8935L96.1819 67.6994H97.1635L95.6077 60.8107ZM94.702 65.2811L95.1852 62.784H95.2029L95.6836 65.2811H94.702Z" fill="#AFB1B8"/>
<path d="M101.95 64.9607H101.932L100.45 60.8107H99.506V67.6994H100.488V63.557H100.508L102.008 67.6994H102.931V60.8107H101.95V64.9607Z" fill="#AFB1B8"/>
<path d="M107.948 60.8107L107.158 63.5494H107.138L106.349 60.8107H105.309L106.657 64.7878V67.6994H107.639V64.7878L108.987 60.8107H107.948Z" fill="#AFB1B8"/>
<path d="M69 69.6445H69.4731V70.9719H69.7943V69.6445H70.2649V69.3724H69V69.6445Z" fill="#AFB1B8"/>
<path d="M72.9767 69.3724L72.3569 70.9719H72.6984L72.83 70.6083H73.4675L73.6041 70.9719H73.9532L73.3182 69.3724H72.9767ZM72.9261 70.3387L73.1437 69.7462L73.3612 70.3387H72.9261Z" fill="#AFB1B8"/>
<path d="M76.9079 70.3821H77.2773V70.5881C77.1694 70.6746 77.0358 70.722 76.8978 70.7229C76.8333 70.7265 76.7689 70.7145 76.7099 70.688C76.6509 70.6614 76.5991 70.6211 76.5588 70.5703C76.474 70.4485 76.4322 70.3017 76.4399 70.1533C76.4399 69.7973 76.5942 69.6193 76.9003 69.6193C76.9809 69.6112 77.0617 69.6325 77.128 69.6791C77.1944 69.7257 77.2419 69.7947 77.2621 69.8735L77.5783 69.8125C77.51 69.4997 77.2849 69.3421 76.9003 69.3421C76.6947 69.3366 76.4947 69.4103 76.3413 69.5481C76.2607 69.6276 76.1983 69.7239 76.1586 69.8302C76.1188 69.9365 76.1026 70.0502 76.1111 70.1634C76.1017 70.3823 76.1749 70.5966 76.316 70.7636C76.3943 70.8444 76.4892 70.9071 76.594 70.9475C76.6988 70.9879 76.8111 71.0049 76.9231 70.9975C77.1734 71.0045 77.4165 70.9133 77.6011 70.7432V70.1126H76.9079V70.3821Z" fill="#AFB1B8"/>
<path d="M80.9226 69.3724H80.5988V70.9719H81.7194V70.6998H80.9226V69.3724Z" fill="#AFB1B8"/>
<path d="M84.3175 69.3724H83.9937V70.9719H84.3175V69.3724Z" fill="#AFB1B8"/>
<path d="M87.6365 70.4405L86.9813 69.3724H86.6676V70.9719H86.9686V69.9268L87.6112 70.9719H87.9325V69.3724H87.6365V70.4405Z" fill="#AFB1B8"/>
<path d="M90.6368 70.2675H91.4337V69.9954H90.6368V69.6445H91.4944V69.3724H90.313V70.9719H91.5273V70.6998H90.6368V70.2675Z" fill="#AFB1B8"/>
<path d="M97.9122 70.0031H97.2823V69.3724H96.9611V70.9719H97.2823V70.2726H97.9122V70.9719H98.2335V69.3724H97.9122V70.0031Z" fill="#AFB1B8"/>
<path d="M100.93 70.2675H101.73V69.9954H100.93V69.6445H101.79V69.3724H100.609V70.9719H101.821V70.6998H100.93V70.2675Z" fill="#AFB1B8"/>
<path d="M105.023 70.2676C105.302 70.2244 105.443 70.0769 105.443 69.8226C105.451 69.7546 105.441 69.6856 105.413 69.623C105.386 69.5603 105.342 69.5063 105.286 69.4666C105.141 69.3938 104.98 69.3614 104.818 69.3725H104.14V70.972H104.462V70.3032H104.525C104.593 70.299 104.662 70.3112 104.725 70.3388C104.772 70.3678 104.811 70.4079 104.839 70.4558L105.188 70.9644H105.572L105.377 70.6516C105.291 70.4972 105.17 70.3656 105.023 70.2676ZM104.699 70.0464H104.462V69.6446H104.715C104.825 69.6357 104.936 69.6486 105.041 69.6827C105.064 69.7034 105.083 69.7291 105.095 69.7579C105.107 69.7867 105.113 69.8179 105.111 69.8492C105.11 69.8804 105.101 69.911 105.087 69.9385C105.072 69.966 105.051 69.9899 105.026 70.0082C104.92 70.0406 104.81 70.0535 104.699 70.0464Z" fill="#AFB1B8"/>
<path d="M108.11 70.2675H108.906V69.9954H108.11V69.6445H108.97V69.3724H107.786V70.9719H109V70.6998H108.11V70.2675Z" fill="#AFB1B8"/>
<defs>
<filter id="filter0_d_1_763" x="0" y="0" width="178" height="100" filterUnits="userSpaceOnUse" color-interpolation-filters="sRGB">
<feFlood flood-opacity="0" result="BackgroundImageFix"/>
<feColorMatrix in="SourceAlpha" type="matrix" values="0 0 0 0 0 0 0 0 0 0 0 0 0 0 0 0 0 0 127 0" result="hardAlpha"/>
<feOffset dy="4"/>
<feGaussianBlur stdDeviation="2"/>
<feComposite in2="hardAlpha" operator="out"/>
<feColorMatrix type="matrix" values="0 0 0 0 0 0 0 0 0 0 0 0 0 0 0 0 0 0 0.25 0"/>
<feBlend mode="normal" in2="BackgroundImageFix" result="effect1_dropShadow_1_763"/>
<feBlend mode="normal" in="SourceGraphic" in2="effect1_dropShadow_1_763" result="shape"/>
</filter>
</defs>
</svg>

<svg xmlns="http://www.w3.org/2000/svg" width="178" height="100" fill="none"><g filter="url(#a)"><rect width="169" height="91" x="4.5" y=".5" stroke="#AFB1B8" rx="3.5" shape-rendering="crispEdges"/></g><path fill="#AFB1B8" fill-rule="evenodd" d="M86.114 21.934h-.137a17.43 17.43 0 0 0-.63-.022h-.455c-.397 0-.802.01-1.204.03a.628.628 0 0 0-.091 0 28.276 28.276 0 0 0-10.516 2.683l-.433.208v22.142l1.012-.344c.888-.305 1.834-.58 2.813-.834a34.329 34.329 0 0 1 8.095-1.075v2.909c-.362.002-.713.012-1.065.03h-.084a32.36 32.36 0 0 0-6.228.956 31.635 31.635 0 0 0-7.42 2.892V23.112a29.728 29.728 0 0 1 7.785-3.166A29.793 29.793 0 0 1 84.892 19h.427c.511.013 1.01.036 1.478.071 1.233.087 2.456.282 3.655.582v2.864a22.638 22.638 0 0 0-3.541-.534l-.073-.006a8.726 8.726 0 0 0-.724-.043Zm5.039 2.927c.635.049 1.292.072 1.958.072a31.47 31.47 0 0 0 7.713-.99 31.764 31.764 0 0 0 7.417-2.893v27.89a29.816 29.816 0 0 1-7.786 3.166 29.948 29.948 0 0 1-7.337.944 22.405 22.405 0 0 1-5.565-.656V24.322c.43.1.873.191 1.323.267.739.125 1.518.216 2.277.272Zm14.194.216-1.012.341c-.931.313-1.869.593-2.813.842a34.261 34.261 0 0 1-8.406 1.078c-.66 0-1.267-.018-1.854-.056l-.807-.053V50.006l.693.06c.642.057 1.305.085 1.973.085a26.884 26.884 0 0 0 6.62-.857 27.759 27.759 0 0 0 5.173-1.86l.433-.208V25.078Z" clip-rule="evenodd"/><path fill="#AFB1B8" d="M71.737 61.212a1.491 1.491 0 0 0-1.126-.455 1.672 1.672 0 0 0-.65.122 1.464 1.464 0 0 0-.832.842c-.08.2-.119.413-.116.628v3.794c-.01.267.042.533.149.778.09.195.219.368.38.509.151.127.329.22.52.27.185.051.376.078.567.078.211.002.42-.043.612-.132a1.6 1.6 0 0 0 .96-1.465v-.424h-.993v.338a.88.88 0 0 1-.058.338.608.608 0 0 1-.144.214.697.697 0 0 1-.415.145.503.503 0 0 1-.465-.204.898.898 0 0 1-.132-.508v-3.538c-.006-.196.036-.39.122-.567a.507.507 0 0 1 .485-.229.527.527 0 0 1 .443.214.806.806 0 0 1 .164.509v.328h.982v-.387a1.79 1.79 0 0 0-.121-.664 1.56 1.56 0 0 0-.332-.534ZM77.629 61.17a1.765 1.765 0 0 0-1.128-.418c-.202 0-.403.037-.592.107A1.56 1.56 0 0 0 75 61.7c-.1.231-.15.482-.145.735v3.638c-.006.256.043.51.145.746.09.195.22.369.384.508.152.14.33.25.524.32.19.07.39.106.592.107a1.714 1.714 0 0 0 1.128-.427c.158-.142.285-.315.374-.508.102-.235.151-.49.144-.746v-3.639a1.77 1.77 0 0 0-.144-.734 1.641 1.641 0 0 0-.374-.532Zm-.463 4.904a.656.656 0 0 1-.197.527.727.727 0 0 1-.934 0 .65.65 0 0 1-.197-.527v-3.639a.653.653 0 0 1 .197-.526.726.726 0 0 1 .934 0 .652.652 0 0 1 .197.526v3.64ZM85.367 67.7v-6.89h-.953l-1.253 3.647h-.017l-1.263-3.646h-.943v6.888h.984v-4.19h.017l.964 2.962h.491l.971-2.962h.018v4.19h.984ZM90.958 61.294c-.151-.17-.343-.3-.556-.377a2.184 2.184 0 0 0-.714-.107h-1.462v6.89h.981v-2.691h.506c.307.014.611-.051.886-.188a1.43 1.43 0 0 0 .539-.527c.113-.183.19-.387.225-.6a4.9 4.9 0 0 0 .053-.783c.01-.33-.023-.662-.096-.984a1.466 1.466 0 0 0-.362-.633Zm-.506 2.1a.867.867 0 0 1-.091.359.552.552 0 0 1-.253.241 1.006 1.006 0 0 1-.463.087h-.448v-2.342h.506a.942.942 0 0 1 .443.086.556.556 0 0 1 .23.254c.054.121.083.252.086.384v.458c0 .16.01.326 0 .473h-.01ZM95.608 60.81h-.805l-1.518 6.89h.982l.288-1.48h1.338l.289 1.48h.981l-1.555-6.89Zm-.906 4.471.483-2.497h.018l.48 2.497h-.981ZM101.95 64.96h-.018l-1.482-4.15h-.944v6.89h.982v-4.143h.02l1.5 4.142h.923v-6.888h-.981v4.15ZM107.948 60.81l-.79 2.74h-.02l-.789-2.74h-1.04l1.348 3.978v2.911h.982v-2.911l1.348-3.977h-1.039ZM69 69.644h.473v1.328h.321v-1.328h.47v-.272H69v.272ZM72.977 69.372l-.62 1.6h.341l.132-.364h.638l.136.364h.35l-.636-1.6h-.341Zm-.05.967.217-.593.217.593h-.435ZM76.908 70.382h.37v.206a.613.613 0 0 1-.38.135.404.404 0 0 1-.34-.153.67.67 0 0 1-.118-.417c0-.356.154-.534.46-.534a.337.337 0 0 1 .362.255l.316-.061c-.068-.313-.293-.47-.678-.47a.804.804 0 0 0-.559.205.78.78 0 0 0-.23.615.872.872 0 0 0 .205.6.776.776 0 0 0 .607.234.96.96 0 0 0 .678-.254v-.63h-.693v.27ZM80.923 69.372h-.324v1.6h1.12V70.7h-.796v-1.328ZM84.317 69.372h-.323v1.6h.323v-1.6ZM87.636 70.44l-.655-1.068h-.313v1.6h.3v-1.045l.643 1.045h.322v-1.6h-.297v1.069ZM90.637 70.267h.797v-.272h-.797v-.35h.857v-.273h-1.181v1.6h1.214V70.7h-.89v-.433ZM97.912 70.003h-.63v-.63h-.32v1.599h.32v-.7h.63v.7h.322v-1.6h-.322v.631ZM100.93 70.267h.8v-.272h-.8v-.35h.86v-.273h-1.181v1.6h1.212V70.7h-.891v-.433ZM105.023 70.268c.279-.044.42-.191.42-.445a.38.38 0 0 0-.157-.356.903.903 0 0 0-.468-.094h-.678v1.599h.322v-.669h.063a.433.433 0 0 1 .2.036c.047.029.086.069.114.117l.349.508h.384l-.195-.312a1.11 1.11 0 0 0-.354-.384Zm-.324-.222h-.237v-.401h.253a.838.838 0 0 1 .326.038.212.212 0 0 1 .046.255.213.213 0 0 1-.061.07.915.915 0 0 1-.327.038ZM108.11 70.267h.796v-.272h-.796v-.35h.86v-.273h-1.184v1.6H109V70.7h-.89v-.433Z"/><defs><filter id="a" width="178" height="100" x="0" y="0" color-interpolation-filters="sRGB" filterUnits="userSpaceOnUse"><feFlood flood-opacity="0" result="BackgroundImageFix"/><feColorMatrix in="SourceAlpha" result="hardAlpha" values="0 0 0 0 0 0 0 0 0 0 0 0 0 0 0 0 0 0 127 0"/><feOffset dy="4"/><feGaussianBlur stdDeviation="2"/><feComposite in2="hardAlpha" operator="out"/><feColorMatrix values="0 0 0 0 0 0 0 0 0 0 0 0 0 0 0 0 0 0 0.25 0"/><feBlend in2="BackgroundImageFix" result="effect1_dropShadow_1_763"/><feBlend in="SourceGraphic" in2="effect1_dropShadow_1_763" result="shape"/></filter></defs></svg>
